src/Assets/Icons/ResidentIconGreen.svg

<svg width="31" height="36" viewBox="0 0 31 36" fill="none" xmlns="http://www.w3.org/2000/svg">
<path d="M3.3122 28.3719C2.19448 27.7244 1.1398 27.113 0.0155504 26.4613C0.0155504 26.1793 0.0155564 25.8886 0.0155504 25.5978C0.0155019 20.3788 0.0279969 15.1596 0.000108803 9.94074C-0.0035277 9.26013 0.1999 8.89508 0.805444 8.55067C5.36226 5.95878 9.89852 3.33049 14.4238 0.683751C14.9563 0.372267 15.3527 0.385204 15.8671 0.684695C20.4552 3.35595 25.0544 6.00809 29.6537 8.66012C30.0123 8.86691 30.2921 9.06771 30.2905 9.55651C30.2768 13.8492 30.2826 18.142 30.2826 22.5384C30.0181 22.4339 29.813 22.3774 29.6321 22.2773C28.5938 21.7031 27.5712 21.0998 26.5228 20.5449C25.9439 20.2385 25.6798 19.8696 25.6977 19.1588C25.7551 16.881 25.7084 14.6008 25.7293 12.3218C25.7337 11.8394 25.5929 11.5488 25.1564 11.2995C21.8367 9.40399 18.5326 7.48119 15.1436 5.52057C11.6621 7.53631 8.16193 9.56292 4.62562 11.6104C4.61387 11.8423 4.59266 12.0677 4.59252 12.293C4.59045 15.8605 4.60933 19.4281 4.5744 22.9952C4.56804 23.6436 4.76154 24.0025 5.32536 24.3224C8.59208 26.1761 11.8367 28.0687 15.1394 29.9773C15.7753 29.609 16.4173 29.2757 17.0172 28.8788C17.573 28.5111 18.0319 28.4617 18.6381 28.8528C19.7949 29.599 21.0209 30.2377 22.3554 30.9994C21.9422 31.2556 21.6764 31.4293 21.4023 31.5888C19.5503 32.6669 17.6849 33.7226 15.8508 34.8303C15.3218 35.1498 14.9293 35.1233 14.4058 34.8156C10.7398 32.6612 7.05441 30.5399 3.3122 28.3719Z" fill="#199976"/>
<path d="M25.147 28.0545C21.9973 26.2436 18.9229 24.4496 15.8231 22.7008C15.2369 22.3701 14.949 22.0279 14.9919 21.3212C15.0579 20.2358 15.0413 19.142 14.9962 18.0545C14.9702 17.4259 15.1187 17.0248 15.7329 16.7287C16.5569 16.3314 17.3182 15.8044 18.2391 15.2537C17.1553 14.6168 16.1775 14.0421 15.1197 13.4205C14.0701 14.0271 12.9948 14.6485 11.8592 15.3047C11.8592 18.3241 11.8592 21.3534 11.8592 24.4593C11.5984 24.4274 11.3917 24.4572 11.248 24.3758C9.9572 23.6453 8.67996 22.8909 7.39285 22.1538C7.06855 21.9681 6.95133 21.7135 6.95273 21.3446C6.96305 18.6046 6.96457 15.8645 6.9543 13.1245C6.95289 12.7487 7.09002 12.5091 7.40914 12.3253C9.80731 10.944 12.2022 9.55687 14.5951 8.16647C14.9409 7.96555 15.248 7.95453 15.6099 8.16536C18.0015 9.55886 20.401 10.9387 22.8047 12.3113C23.1411 12.5033 23.2278 12.7599 23.2234 13.1241C23.2074 14.4444 23.1962 15.7655 23.2272 17.0853C23.2385 17.5647 23.0219 17.7784 22.6354 17.9898C21.6927 18.5055 20.778 19.0723 19.6795 19.7203C23.2834 21.8093 26.7344 23.8097 30.3404 25.9C29.6365 26.3173 29.1103 26.6327 28.5808 26.9422C27.8979 27.3415 27.1795 27.69 26.5384 28.1474C26.0326 28.5082 25.64 28.4391 25.147 28.0545Z" fill="#199976"/>
</svg>

<svg width="31" height="36" fill="none" xmlns="http://www.w3.org/2000/svg"><path d="m3.312 28.372-3.296-1.91v-.864C.016 20.378.028 15.16 0 9.94c-.004-.68.2-1.046.805-1.39C5.362 5.959 9.9 3.33 14.424.684c.532-.312.929-.299 1.443 0 4.588 2.672 9.187 5.324 13.787 7.976.358.207.638.408.637.897-.014 4.292-.008 8.585-.008 12.981-.265-.104-.47-.16-.65-.26-1.04-.575-2.062-1.178-3.11-1.733-.58-.307-.843-.675-.825-1.386.057-2.278.01-4.558.031-6.837.005-.483-.136-.773-.573-1.022-3.32-1.896-6.623-3.819-10.012-5.78L4.626 11.61c-.012.232-.033.458-.033.683-.003 3.568.016 7.135-.019 10.702-.006.649.188 1.008.751 1.327 3.267 1.854 6.512 3.747 9.814 5.655.636-.368 1.278-.701 1.878-1.098.556-.368 1.015-.417 1.621-.026 1.157.746 2.383 1.385 3.717 2.146-.413.257-.679.43-.953.59-1.852 1.078-3.717 2.134-5.551 3.241-.53.32-.922.293-1.445-.014-3.666-2.155-7.352-4.276-11.094-6.444Z" fill="#199976"/><path d="M25.147 28.055c-3.15-1.811-6.224-3.605-9.324-5.354-.586-.33-.874-.673-.831-1.38.066-1.085.05-2.179.004-3.267-.026-.628.123-1.03.737-1.325.824-.398 1.585-.925 2.506-1.475l-3.12-1.833-3.26 1.884v9.154c-.26-.032-.467-.002-.611-.083-1.29-.73-2.568-1.485-3.855-2.222-.324-.186-.442-.44-.44-.81.01-2.74.012-5.48.001-8.22-.001-.375.136-.615.455-.799 2.398-1.381 4.793-2.768 7.186-4.159.346-.2.653-.211 1.015 0a951.754 951.754 0 0 0 7.195 4.145c.336.192.423.449.418.813-.016 1.32-.027 2.641.004 3.961.011.48-.205.693-.592.905-.942.516-1.857 1.082-2.956 1.73L30.34 25.9c-.703.417-1.23.733-1.76 1.042-.682.4-1.4.748-2.042 1.205-.505.361-.898.292-1.391-.092Z" fill="#199976"/></svg>
